X:1
T:Devilish Mary
M:4/4
L:1/4
K:Ab
 E| A A A A| D F F F| E E E D| C A,2 E| A A A A/2A/2| D F F F| E E E D/2D/2|\
 C A,2 E| A A A A| D F F F| E E E D| C A,2||
